goods.client/src/assets/icons/services/warehouse.svg

<svg width="50" height="50" viewBox="0 0 50 50" fill="none" xmlns="http://www.w3.org/2000/svg">
<g id="Group 2">
<path id="Vector" d="M1.69446 16.6319L25.0522 0.782043L48.4098 16.6319V49.1658H1.69446V16.6319Z" fill="white"/>
<path id="Vector_2" d="M26.7205 1.91417L25.0522 0.782043L1.69446 16.6319V49.1658H5.03127V16.6319L26.7205 1.91417Z" fill="white"/>
<path id="SVGCleanerId_0" d="M40.0678 20.8029H10.0365V49.1658H40.0678V20.8029Z" fill="#32965D"/>
<g id="Group">
<path id="SVGCleanerId_0_1_" d="M40.0678 20.8029H10.0365V49.1658H40.0678V20.8029Z" fill="#32965D"/>
</g>
<path id="Vector_3" d="M13.3733 20.8029H10.0365V49.1658H13.3733V20.8029Z" fill="#32965D"/>
<path id="Vector_4" d="M41.7361 17.4661H8.36804V20.8029H41.7361V17.4661Z" fill="#32965D"/>
<path id="Vector_5" d="M20.0469 29.1449H10.0365V39.1554H20.0469V29.1449Z" fill="#E56133"/>
<path id="Vector_6" d="M12.5391 29.1449H10.0365V39.1554H12.5391V29.1449Z" fill="#E56133"/>
<path id="Vector_7" d="M16.7102 29.1449H13.3734V34.1501H16.7102V29.1449Z" fill="#AF462E"/>
<path id="Vector_8" d="M20.0469 39.1554H10.0365V49.1658H20.0469V39.1554Z" fill="#E56133"/>
<path id="Vector_9" d="M12.5391 39.1554H10.0365V49.1658H12.5391V39.1554Z" fill="#E56133"/>
<path id="Vector_10" d="M16.7102 39.1554H13.3734V44.1605H16.7102V39.1554Z" fill="#AF462E"/>
<path id="Vector_11" d="M30.0574 39.1554H20.047V49.1658H30.0574V39.1554Z" fill="#E56133"/>
<path id="Vector_12" d="M22.5496 39.1554H20.047V49.1658H22.5496V39.1554Z" fill="#E56133"/>
<path id="Vector_13" d="M26.7205 39.1554H23.3837V44.1605H26.7205V39.1554Z" fill="#AF462E"/>
<path id="Vector_14" d="M48.8228 15.9849L25.4782 0.135071C25.2133 -0.0449097 24.8717 -0.044812 24.6064 0.135071L1.22595 15.9849C1.0115 16.1305 0.860229 16.3728 0.860229 16.632V49.1659C0.860229 49.5979 1.26248 50.0001 1.69441 50.0001H48.4097C48.8418 50.0001 49.1396 49.5979 49.1396 49.1659V16.632C49.1397 16.3728 49.0374 16.1305 48.8228 15.9849ZM9.09802 20.0732V18.3005H40.902V20.0732H9.09802ZM14.1032 29.9793H15.8759V33.4204H14.1032V29.9793ZM13.3733 34.9845H16.7101C17.1421 34.9845 17.44 34.5822 17.44 34.1503V29.9793H19.2127V38.4256H16.71H13.3732H10.7664V29.9793H12.539V34.1503C12.539 34.5821 12.9414 34.9845 13.3733 34.9845ZM14.1032 39.9897H15.8759V43.4308H14.1032V39.9897ZM10.7664 39.9897H12.539V44.1607C12.539 44.5926 12.9413 44.9948 13.3732 44.9948H16.71C17.142 44.9948 17.4399 44.5926 17.4399 44.1607V39.9897H19.2126V48.436H10.7663L10.7664 39.9897ZM20.7768 48.436V39.9897H22.5495V44.1607C22.5495 44.5926 22.9517 44.9948 23.3837 44.9948H26.7205C27.1525 44.9948 27.4504 44.5926 27.4504 44.1607V39.9897H29.223V48.436H20.7768ZM24.1136 39.9897H25.8863V43.4308H24.1136V39.9897ZM47.5756 48.436H40.7976V31.6477C40.7976 31.2157 40.4475 30.8656 40.0156 30.8656C39.5836 30.8656 39.2336 31.2158 39.2336 31.6477V48.436H30.7873V39.1555C30.7873 38.7235 30.4893 38.4256 30.0574 38.4256H20.7769V29.1451C20.7769 28.7132 20.4789 28.4152 20.047 28.4152H10.7666V21.6373H39.2338V28.311C39.2338 28.7429 39.5839 29.093 40.0158 29.093C40.4478 29.093 40.7978 28.7428 40.7978 28.311V21.6373H41.7363C42.1683 21.6373 42.4662 21.2351 42.4662 20.8031V17.4663C42.4662 17.0344 42.1682 16.7364 41.7363 16.7364H8.36804C7.93611 16.7364 7.53386 17.0345 7.53386 17.4663V20.8031C7.53386 21.2351 7.93611 21.6373 8.36804 21.6373H9.20222V48.4361H2.42439V17.0465L25 1.72736L47.5756 17.0465V48.436Z" fill="#276041"/>
<path id="Vector_15" d="M20.9333 7.5078C20.9333 7.93973 21.2835 8.28983 21.7153 8.28983H28.389C28.821 8.28983 29.171 7.93964 29.171 7.5078C29.171 7.07596 28.8209 6.72577 28.389 6.72577H21.7153C21.2834 6.72577 20.9333 7.07587 20.9333 7.5078Z" fill="#276041"/>
<path id="Vector_16" d="M28.389 10.0626H21.7153C21.2834 10.0626 20.9333 10.4128 20.9333 10.8446C20.9333 11.2766 21.2835 11.6267 21.7153 11.6267H28.389C28.821 11.6267 29.171 11.2765 29.171 10.8446C29.171 10.4127 28.821 10.0626 28.389 10.0626Z" fill="#276041"/>
<path id="Vector_17" d="M28.389 13.3994H21.7153C21.2834 13.3994 20.9333 13.7496 20.9333 14.1814C20.9333 14.6133 21.2835 14.9635 21.7153 14.9635H28.389C28.821 14.9635 29.171 14.6133 29.171 14.1814C29.171 13.7496 28.821 13.3994 28.389 13.3994Z" fill="#276041"/>
<path id="Vector_18" d="M13.3733 37.487H16.7102C17.1421 37.487 17.4922 37.1368 17.4922 36.705C17.4922 36.273 17.142 35.9229 16.7102 35.9229H13.3733C12.9414 35.9229 12.5913 36.2731 12.5913 36.705C12.5912 37.1368 12.9414 37.487 13.3733 37.487Z" fill="#276041"/>
<path id="Vector_19" d="M16.7102 45.9333H13.3733C12.9414 45.9333 12.5913 46.2835 12.5913 46.7153C12.5913 47.1473 12.9415 47.4974 13.3733 47.4974H16.7102C17.1421 47.4974 17.4922 47.1472 17.4922 46.7153C17.4922 46.2834 17.142 45.9333 16.7102 45.9333Z" fill="#276041"/>
<path id="Vector_20" d="M26.7205 45.9333H23.3837C22.9518 45.9333 22.6017 46.2835 22.6017 46.7153C22.6017 47.1473 22.9519 47.4974 23.3837 47.4974H26.7205C27.1525 47.4974 27.5025 47.1472 27.5025 46.7153C27.5026 46.2834 27.1525 45.9333 26.7205 45.9333Z" fill="#276041"/>
</g>
</svg>

<svg xmlns="http://www.w3.org/2000/svg" width="50" height="50" fill="none"><g clip-path="url(#a)"><path fill="#fff" d="M1.694 16.632 25.052.782l23.358 15.85v32.534H1.694z"/><path fill="#fff" d="M26.72 1.914 25.053.782 1.694 16.632v32.534h3.337V16.632z"/><path fill="#6B7280" d="M40.068 20.803H10.037v28.363h30.03z"/><path fill="#6B7280" d="M40.068 20.803H10.037v28.363h30.03z"/><path fill="#6B7280" d="M13.373 20.803h-3.336v28.363h3.336zM41.736 17.466H8.368v3.337h33.368z"/><path fill="#D12026" d="M20.047 29.145h-10.01v10.01h10.01z"/><path fill="#D12026" d="M12.54 29.145h-2.503v10.01h2.502z"/><path fill="#91030E" d="M16.71 29.145h-3.337v5.005h3.337z"/><path fill="#D12026" d="M20.047 39.155h-10.01v10.01h10.01z"/><path fill="#D12026" d="M12.54 39.155h-2.503v10.01h2.502z"/><path fill="#91030E" d="M16.71 39.155h-3.337v5.005h3.337z"/><path fill="#D12026" d="M30.057 39.155h-10.01v10.01h10.01z"/><path fill="#D12026" d="M22.55 39.155h-2.503v10.01h2.503z"/><path fill="#91030E" d="M26.72 39.155h-3.336v5.005h3.337z"/><path fill="#231F20" d="M48.823 15.985 25.478.135a.77.77 0 0 0-.872 0l-23.38 15.85a.8.8 0 0 0-.366.647v32.534c0 .432.402.834.834.834H48.41c.432 0 .73-.402.73-.834V16.632c0-.26-.103-.502-.317-.647M9.098 20.073V18.3h31.804v1.773zm5.005 9.906h1.773v3.441h-1.773zm-.73 5.005h3.337c.432 0 .73-.402.73-.834v-4.17h1.773v8.446h-8.447v-8.447h1.773v4.171c0 .432.402.834.834.834m.73 5.006h1.773v3.44h-1.773zm-3.337 0h1.773v4.17c0 .433.402.835.834.835h3.337c.432 0 .73-.402.73-.834V39.99h1.773v8.446h-8.447zm10.01 8.446V39.99h1.773v4.17c0 .433.403.835.835.835h3.337c.431 0 .73-.402.73-.834V39.99h1.772v8.446zm3.338-8.446h1.772v3.44h-1.772zm23.462 8.446h-6.778V31.648a.782.782 0 1 0-1.564 0v16.788h-8.447v-9.28c0-.432-.298-.73-.73-.73h-9.28v-9.28c0-.433-.298-.73-.73-.73h-9.28v-6.779h28.467v6.674a.782.782 0 1 0 1.564 0v-6.674h.938c.432 0 .73-.402.73-.834v-3.337c0-.432-.298-.73-.73-.73H8.368c-.432 0-.834.299-.834.73v3.337c0 .432.402.834.834.834h.834v26.8H2.424v-31.39L25 1.727l22.576 15.32z"/><path fill="#231F20" d="M20.933 7.508c0 .432.35.782.782.782h6.674a.782.782 0 1 0 0-1.564h-6.674a.78.78 0 0 0-.782.782M28.389 10.063h-6.674a.782.782 0 0 0 0 1.564h6.674a.782.782 0 0 0 0-1.564M28.389 13.4h-6.674a.782.782 0 0 0 0 1.563h6.674a.782.782 0 0 0 0-1.564M13.373 37.487h3.337a.782.782 0 0 0 0-1.564h-3.337a.782.782 0 0 0 0 1.564M16.71 45.933h-3.337a.782.782 0 0 0 0 1.564h3.337a.782.782 0 0 0 0-1.564M26.72 45.933h-3.336a.782.782 0 0 0 0 1.564h3.337a.782.782 0 0 0 0-1.564"/></g><defs><clipPath id="a"><path fill="#fff" d="M0 0h50v50H0z"/></clipPath></defs></svg>
